X: 1
T: Did You Wash Your Father's Shirt
M: 4/4
L: 1/8
R: reel
K: Dmaj
g|fdec dcAg|fdec d2de|fdec dBAB|=cAGE D3g|
fdec dcAg|fdec d2de|fdec dBAB|=cAGE D2AD||
(3EFG AB =cAG2|Addc d3e|fdec dBAB|=cAGE D2AD|
(3EFG AB =cAG2|Addc d3e|fdec dBAB|=cAGE D3||
